X: 1
P: Rock Valley Jig
R: Jig
C: by John Burt
C: from C. Falt (www.trytel.com/~cfalt/Fiddle/)
C: arr. T. Traub 8-3-03
M: 6/8
L: 1/8
K: C
|: G,|"C"C2E GFE|"Dm"D2 E F2 A|"G"GAG GBd|"C"cBc "F"AGE|"C"C2E GFE|"Dm"D2E F2A|"G"GAG GBd|"C"c3 c2:|
|: ef|"C"gag gag|"C"e2c "F"cBA|"C"G2 c "Am"cBc|"D7"ed^c "G"def|"C"gag gag|"C"e2c "F"cBA|"G7"GAc Bcd|"C"c3 c2:|
